!!!COM: Robert Schumann
!!!CNT: Deutsch
!!!TXO: Deutsch
!!!OTL: "Die Meerfee"
!!!LYR: Buddeus
!!!OPR: Fu2nf heitere Gesa2nge
!!!OPS: Op. 125
!!!ONM: No. 1
!!!ENC: Leigh VanHandel
!!!YOR: Schumann Lieder - Max Friedlaender, ed.,
!!!YOR: New York: C. F. Peters, Vol. 3
!!!ODT: 1851/
**kern	**silbe
*staff1	*
*clefG2	*
*k[f#c#g#]	*
*M2/4	*
*MM[Nicht zu schnell]	*
=4	=4
4r	.
{[4ee	{Hel-
=5	=5
8ee]	|
8cc#	-le
8b	Sil-
8a	-ber-
=6	=6
8g#	-glo2ck-
8f#	-lein
16e	klin-
16e	-gen
16f#	aus
16g#	der
=7	=7
8a	Luft
8b	vom
4cc#}	Meer;}
=8	=8
4r	.
{8.ff#	{lei-
16cc#	-se
=9	=9
8ee	Ma2d-
8dd	-chen-
8cc#	-stim-
8b	-men
=10	=10
8a	sin-
8g#	-gen
8a	fro2h-
8cc#	-lich
=11	=11
8.ee	rings
16b	um-
4b}	-her;}
=12	=12
4r	.
{16c#	{und
16e	|
16a	auf
16cc#	|
=13	=13
16ee	leich-
16cc#	|
16a	-tem
16g#	|
8.f#	Per-
16dd	-len-
=14	=14
8dd	-wa-
8cc#	-gen
16c#	fa2hrt
16e	|
16a	die
16cc#	|
=15	=15
8.ee	Fee
16gn	vor-
4g}	-bei,}
=16	=16
4r	.
{8.f#	{von
16ee	der
=17	=17
8ee	lau-
8dd	-en
8cc#	Luft
8b	ge-
=18	=18
8a	-tra-
8g#	-gen,
[4ee	wailt
=19	=19
8ee]	|
8dd	die
8.b	Me-
16cc#	-lo-
=20	=20
8a}	-dei.}
8r	.
{8.b	{Lich-
16cc#	-te
=21	=21
8cc#	Fun-
8f#	-ken
16f#	rings
16g#	|
8a	um-
=22	=22
8a	-glu2h-
8g#	-ten
8b	sie
8b#	im
=23	=23
8.cc#	hei-
16cc#	-tern
[4ee	Spiel,
=24	=24
4ee]}	|}
{8.dd#	{Du2f-
16cc#	-te,
=25	=25
8r	.
16f#	wie
16g#	von
8a	Ro-
8a#	-sen-
=26	=26
8cc#	-blu2-
8b	-men,
8cc#	wehn
8ff#	vom
=27	=27
8ee	Mast
8dd#	zum
4ee}	Kiel;}
=28	=28
2r	.
=29	=29
4r	.
{8.b-	{und
16bn	der
=30	=30
8ccn	Kna-
8b-	-be
8a	sieht
8gn	es
=31	=31
8gn	trau2-
8f#	-mend
8g	an
8a	des
=32	=32
8b-	Schif-
8bn	-fes
4cc#}	Bord,}
=33	=33
2r	.
=34	=34
4r	.
{8ee	{doch
8ee	die
=35	=35
8dd#	Wel-
8dd#	-len
8ff#	tra-
8ee	-gen
=36	=36
16dd	scha2u-
16dd	-mend
16cc#	die
16b	Er-
8f#	-schein-
8g#	-ung
=37	=37
4a}	fort.}
4r	.
==	==
*-	*-
